images/item-product-item4.svg

<svg width="64" height="64" viewBox="0 0 64 64" fill="none" xmlns="http://www.w3.org/2000/svg">
<circle cx="32" cy="32" r="32" fill="#61AA45"/>
<g clip-path="url(#clip0_57_629)">
<path opacity="0.94" fill-rule="evenodd" clip-rule="evenodd" d="M51.9609 35.6328C51.9609 36.8307 51.9609 38.0287 51.9609 39.2266C51.8969 39.6957 51.6365 40.0213 51.1797 40.2031C50.6856 40.2422 50.1908 40.2552 49.6953 40.2422C49.2581 42.0172 48.1253 42.9547 46.2969 43.0547C44.4684 42.9547 43.3356 42.0172 42.8984 40.2422C39.1484 40.2422 35.3984 40.2422 31.6484 40.2422C31.0868 42.3081 29.7326 43.2326 27.5859 43.0156C26.0812 42.6698 25.1697 41.7453 24.8516 40.2422C22.8914 40.2798 20.9383 40.2407 18.9922 40.125C18.8971 39.9963 18.832 39.8531 18.7969 39.6953C18.7578 38.2893 18.7448 36.8831 18.7578 35.4766C17.091 35.4896 15.4243 35.4766 13.7578 35.4375C13.6183 35.3762 13.5011 35.2851 13.4063 35.1641C13.2896 34.7714 13.3807 34.446 13.6797 34.1875C15.099 34.1745 16.5182 34.1615 17.9375 34.1485C19.4157 34.1363 20.887 34.1754 22.3516 34.2656C22.7213 34.7522 22.6431 35.1428 22.1172 35.4375C21.4406 35.4766 20.7635 35.4896 20.0859 35.4766C20.0859 36.6224 20.0859 37.7682 20.0859 38.9141C21.6745 38.9141 23.2631 38.9141 24.8516 38.9141C25.2983 37.1524 26.4311 36.241 28.25 36.1797C30.0151 36.2492 31.1479 37.1346 31.6484 38.836C34.6688 38.9141 37.6897 38.9401 40.7109 38.9141C40.7109 33.4974 40.7109 28.0807 40.7109 22.6641C33.8359 22.6641 26.9609 22.6641 20.0859 22.6641C20.0859 23.2891 20.0859 23.9141 20.0859 24.5391C21.3883 24.526 22.6904 24.5391 23.9922 24.5781C24.6172 24.9948 24.6172 25.4115 23.9922 25.8281C21.2838 25.8803 18.5755 25.8803 15.8672 25.8281C15.5103 25.6296 15.3931 25.3301 15.5156 24.9297C15.5807 24.7604 15.6979 24.6432 15.8672 24.5781C16.8304 24.5391 17.7939 24.526 18.7578 24.5391C18.7286 23.7014 18.7676 22.8681 18.875 22.0391C19.0559 21.7018 19.3293 21.4805 19.6953 21.375C26.8568 21.3229 34.0182 21.3229 41.1797 21.375C41.576 21.4849 41.8495 21.7322 42 22.1172C42.0391 23.7056 42.0521 25.2941 42.0391 26.8828C43.732 26.8698 45.4247 26.8828 47.1172 26.9219C47.5381 27.0824 47.8636 27.3559 48.0938 27.7422C49.3796 29.9754 50.6035 32.241 51.7656 34.5391C51.8361 34.9136 51.9012 35.2782 51.9609 35.6328ZM42.0391 28.211C43.6466 28.1854 45.2481 28.2115 46.8438 28.2891C48.0355 30.3859 49.2074 32.4953 50.3594 34.6172C50.4951 34.9423 50.5732 35.2809 50.5938 35.6328C50.6328 36.7263 50.6459 37.82 50.6328 38.9141C50.316 38.9394 50.0035 38.9134 49.6953 38.836C48.9621 36.6979 47.4777 35.8516 45.2422 36.2969C44.0149 36.7299 43.2337 37.5763 42.8984 38.836C42.6166 38.9132 42.3302 38.9393 42.0391 38.9141C42.0391 35.3463 42.0391 31.7787 42.0391 28.211ZM27.6641 37.5078C29.2371 37.3628 30.1485 38.066 30.3984 39.6172C30.0991 41.2509 29.1356 41.9149 27.5078 41.6094C26.1562 40.8878 25.8046 39.8331 26.4531 38.4453C26.78 38.0266 27.1837 37.7141 27.6641 37.5078ZM45.7891 37.5078C47.5305 37.3875 48.4029 38.1949 48.4063 39.9297C48.0713 41.2542 47.2249 41.8402 45.8672 41.6875C44.8071 41.3825 44.2341 40.6794 44.1484 39.5781C44.2822 38.5474 44.8291 37.8572 45.7891 37.5078Z" fill="white"/>
<path opacity="0.973" fill-rule="evenodd" clip-rule="evenodd" d="M19.1484 27.1173C19.5174 27.0433 19.8169 27.1474 20.0469 27.4298C20.0859 28.7316 20.099 30.0337 20.0859 31.336C22.9246 31.323 25.7631 31.336 28.6016 31.3751C29.0182 31.7657 29.0182 32.1563 28.6016 32.547C24.6953 32.5991 20.7891 32.5991 16.8828 32.547C16.3981 32.1938 16.3721 31.8032 16.8047 31.3751C17.4552 31.336 18.1063 31.3231 18.7578 31.336C18.7448 30.1118 18.7578 28.8878 18.7969 27.6642C18.8395 27.4277 18.9566 27.2454 19.1484 27.1173Z" fill="white"/>
<path opacity="0.929" fill-rule="evenodd" clip-rule="evenodd" d="M11.9609 29.0703C11.9609 28.7838 11.9609 28.4974 11.9609 28.211C12.0689 28.1093 12.1991 28.0442 12.3516 28.0156C13.9141 27.9635 15.4766 27.9635 17.0391 28.0156C17.4978 28.2513 17.615 28.6028 17.3906 29.0703C17.3201 29.1642 17.229 29.2293 17.1172 29.2656C15.4766 29.3178 13.8359 29.3178 12.1953 29.2656C12.1271 29.184 12.049 29.1189 11.9609 29.0703Z" fill="white"/>
</g>
<defs>
<clipPath id="clip0_57_629">
<rect width="40" height="40" fill="white" transform="translate(12 12)"/>
</clipPath>
</defs>
</svg>

<svg xmlns="http://www.w3.org/2000/svg" width="64" height="64" fill="none"><circle cx="32" cy="32" r="32" fill="#61AA45"/><g fill="#fff" fill-rule="evenodd" clip-path="url(#a)" clip-rule="evenodd"><path d="M51.96 35.633v3.594c-.063.469-.324.794-.78.976-.494.04-.99.052-1.485.04-.437 1.774-1.57 2.712-3.398 2.812-1.829-.1-2.961-1.038-3.399-2.813h-11.25c-.561 2.066-1.915 2.99-4.062 2.774-1.505-.346-2.416-1.27-2.734-2.774a74.589 74.589 0 0 1-5.86-.117 1.126 1.126 0 0 1-.195-.43c-.04-1.406-.052-2.812-.04-4.218-1.666.013-3.333 0-5-.04a.9.9 0 0 1-.35-.273c-.117-.393-.026-.718.273-.977l4.258-.038c1.478-.013 2.949.026 4.414.117.37.486.291.877-.235 1.172-.676.039-1.354.052-2.031.039v3.437h4.766c.446-1.762 1.58-2.673 3.398-2.734 1.765.07 2.898.955 3.398 2.656 3.02.078 6.042.104 9.063.078v-16.25H20.086v1.875a97.64 97.64 0 0 1 3.906.04c.625.416.625.832 0 1.25-2.708.051-5.416.051-8.125 0-.357-.2-.474-.499-.351-.9a.587.587 0 0 1 .351-.35 53.473 53.473 0 0 1 2.89-.04c-.028-.838.01-1.67.118-2.5.18-.337.454-.559.82-.664 7.162-.052 14.323-.052 21.485 0 .396.11.67.357.82.742.04 1.589.052 3.177.04 4.766a165 165 0 0 1 5.077.039c.421.16.747.434.977.82a142.446 142.446 0 0 1 3.672 6.797c.07.375.135.74.195 1.094Zm-9.92-7.422c1.607-.026 3.208 0 4.804.078a372.513 372.513 0 0 1 3.515 6.328c.136.325.214.664.235 1.016.039 1.093.052 2.187.039 3.281-.317.025-.63 0-.938-.078-.733-2.138-2.217-2.984-4.453-2.54-1.227.434-2.008 1.28-2.344 2.54a2.433 2.433 0 0 1-.859.078V28.211Zm-14.376 9.297c1.573-.145 2.484.558 2.734 2.11-.299 1.633-1.262 2.297-2.89 1.991-1.352-.721-1.703-1.776-1.055-3.164.327-.418.73-.73 1.211-.937Zm18.125 0c1.742-.12 2.614.687 2.617 2.422-.335 1.324-1.181 1.91-2.539 1.758-1.06-.306-1.633-1.009-1.719-2.11.134-1.03.681-1.72 1.641-2.07Z" opacity=".94"/><path d="M19.148 27.117c.37-.074.669.03.899.313.039 1.302.052 2.604.039 3.906 2.839-.013 5.677 0 8.516.04.416.39.416.78 0 1.171-3.907.052-7.813.052-11.72 0-.484-.353-.51-.744-.077-1.172.65-.039 1.301-.052 1.953-.039-.013-1.224 0-2.448.039-3.672a.8.8 0 0 1 .351-.547Z" opacity=".973"/><path d="M11.96 29.07v-.859a.762.762 0 0 1 .392-.195 70.31 70.31 0 0 1 4.687 0c.459.235.576.587.352 1.054a.544.544 0 0 1-.274.196c-1.64.052-3.281.052-4.922 0a.822.822 0 0 0-.234-.196Z" opacity=".929"/></g><defs><clipPath id="a"><path fill="#fff" d="M12 12h40v40H12z"/></clipPath></defs></svg>
